.local/share/icons/Gruvbox-Plus-Dark/actions/16/pane-show.svg

<svg xmlns="http://www.w3.org/2000/svg" width="16" height="16" viewBox="0 0 16 16">
 <defs>
  <style id="current-color-scheme" type="text/css">
   .ColorScheme-Text { color:#ebdbb2; } .ColorScheme-Highlight { color:#458588; }
  </style>
 </defs>
 <path style="fill:currentColor" class="ColorScheme-Text" d="M 13 1 L 3 1.0039062 L 3 15.003906 L 13 15 L 13 13.003906 L 5 13.003906 L 5 3.0039062 L 13 3.0019531 L 13 1 z M 10 5.0039062 L 6 8.0039062 L 10 11.003906 L 10 9.0039062 L 14 9.0039062 L 14 7.0039062 L 10 7.0039062 L 10 5.0039062 z"/>
</svg>

<svg width="16" height="16" version="1.1" xmlns="http://www.w3.org/2000/svg">
  <defs>
    <style id="current-color-scheme" type="text/css">.ColorScheme-Text { color:#ebdbb2; } .ColorScheme-Highlight { color:#458588; }</style>
  </defs>
  <path class="ColorScheme-Text" d="m13 1-10 0.003906v14l10-0.003906v-1.996h-8v-10l8-0.001953v-2.002zm-3 4.004-4 3 4 3v-2h4v-2h-4v-2z" fill="currentColor"/>
</svg>
